la/weebly.svg

<svg xmlns="http://www.w3.org/2000/svg" viewBox="0 0 32 32" height="1em" width="1em">
  <path d="M 6.5 6 C 5.9 6 5.4007813 6.1007813 4.8007812 6.3007812 C 2.5007813 7.2007813 1.4007812 9.8992188 2.3007812 12.199219 L 6.8007812 23.199219 C 7.5007813 24.899219 9.1003906 26 10.900391 26 L 11 26 C 12.8 26 14.399609 25.000391 15.099609 23.400391 L 16 21 L 16.900391 23.400391 C 17.600391 25.000391 19.2 26 21 26 L 21.099609 26 C 22.899609 26 24.499219 24.899219 25.199219 23.199219 L 29.699219 12.199219 C 30.599219 9.8992187 29.499219 7.3007812 27.199219 6.3007812 C 26.599219 6.1007813 26.1 6 25.5 6 C 23.7 6 22.000781 7.1007812 21.300781 8.8007812 L 20.699219 10.5 L 20 8.5996094 C 19.3 6.9996094 17.7 6 16 6 C 15.4 6 14.699609 6.1003906 14.099609 6.4003906 C 13.099609 6.9003906 12.400391 7.5996094 11.900391 8.5996094 L 11.800781 8.6992188 L 11.099609 10.599609 L 10.5 8.9003906 C 10 7.1003906 8.3 6 6.5 6 z M 6.5 8 C 7.5 8 8.4007812 8.6 8.8007812 9.5 L 9.3007812 11.099609 L 11.099609 16.599609 L 13.099609 11.199219 L 13.699219 9.5996094 L 13.699219 9.5 L 13.699219 9.4003906 C 13.899219 9.0003906 14.3 8.4992188 15 8.1992188 C 15.3 8.0992188 15.6 8 16 8 C 17 8 17.800781 8.6003906 18.300781 9.4003906 L 19 11.199219 L 21 16.599609 L 22.800781 11.099609 L 23.300781 9.5 C 23.600781 8.6 24.5 8 25.5 8 C 25.8 8 26.100391 8.0992188 26.400391 8.1992188 C 27.000391 8.4992188 27.500781 8.9 27.800781 9.5 C 28.100781 10.1 28.100781 10.800391 27.800781 11.400391 L 23.300781 22.400391 C 22.900781 23.400391 21.999609 24 21.099609 24 L 21 24 C 20 24 19.199219 23.399609 18.699219 22.599609 L 17.800781 20.300781 L 16 15.400391 L 14.099609 20.300781 L 13.199219 22.599609 C 12.799219 23.399609 12 24 11 24 C 10 24 9.0992188 23.400391 8.6992188 22.400391 L 4.1992188 11.400391 C 3.8992188 10.800391 3.9992188 10.1 4.1992188 9.5 C 4.4992187 8.9 4.8996094 8.3992188 5.5996094 8.1992188 C 5.8996094 8.0992188 6.2 8 6.5 8 z"/>
</svg>

<svg xmlns="http://www.w3.org/2000/svg" viewBox="0 0 32 32" height="1em" width="1em">
  <path d="M6.5 6c-.6 0-1.1.1-1.7.3-2.3.9-3.4 3.6-2.5 5.9l4.5 11c.7 1.7 2.3 2.8 4.1 2.8h.1c1.8 0 3.4-1 4.1-2.6L16 21l.9 2.4C17.6 25 19.2 26 21 26h.1c1.8 0 3.4-1.1 4.1-2.8l4.5-11c.9-2.3-.2-4.9-2.5-5.9-.6-.2-1.1-.3-1.7-.3-1.8 0-3.5 1.1-4.2 2.8l-.6 1.7-.7-1.9C19.3 7 17.7 6 16 6c-.6 0-1.3.1-1.9.4-1 .5-1.7 1.2-2.2 2.2l-.1.1-.7 1.9-.6-1.7C10 7.1 8.3 6 6.5 6zm0 2c1 0 1.9.6 2.3 1.5l.5 1.6 1.8 5.5 2-5.4.6-1.6v-.2c.2-.4.6-.9 1.3-1.2.3-.1.6-.2 1-.2 1 0 1.8.6 2.3 1.4l.7 1.8 2 5.4 1.8-5.5.5-1.6c.3-.9 1.2-1.5 2.2-1.5.3 0 .6.1.9.2.6.3 1.1.7 1.4 1.3.3.6.3 1.3 0 1.9l-4.5 11c-.4 1-1.3 1.6-2.2 1.6H21c-1 0-1.8-.6-2.3-1.4l-.9-2.3-1.8-4.9-1.9 4.9-.9 2.3c-.4.8-1.2 1.4-2.2 1.4-1 0-1.9-.6-2.3-1.6l-4.5-11c-.3-.6-.2-1.3 0-1.9.3-.6.7-1.1 1.4-1.3.3-.1.6-.2.9-.2z"/>
</svg>
